img/logo-suzuki.svg

<svg width="147" height="180" viewBox="0 0 147 180" fill="none" xmlns="http://www.w3.org/2000/svg">
<g clip-path="url(#clip0)">
<path d="M144.626 98.8492C144.626 98.8492 131.294 102.692 105.507 118.498C82.388 132.693 73.3224 142.229 73.3224 142.229L2 93.0639C2 93.0639 32.0054 71.0548 57.0765 87.9118L90.7082 110.924L94.8106 108.232L2.01443 43.3851C2.01443 43.3851 15.3507 39.5378 41.1239 23.7409C64.2569 9.54145 73.3224 -8.70077e-06 73.3224 -8.70077e-06L144.64 49.1656C144.64 49.1656 114.639 71.1747 89.5636 54.3177L55.9319 31.3011L51.8295 33.9875L144.626 98.8492Z" fill="#E20A17"/>
<path d="M94.5976 180.574C104.481 180.574 107.012 178.056 107.012 172.504V158.44H99.1802V171.664C99.1802 173.885 97.2732 175.208 94.5976 175.208C91.8104 175.208 90.0107 173.878 90.0107 171.629V158.44H82.1833V172.504C82.1833 178.056 84.7143 180.574 94.5976 180.574Z" fill="#003399"/>
<path d="M136.69 158.44H125.948L117.256 165.888V158.44H109.089V180.022H117.256V172.367L125.329 180.022H136.298L124.359 168.949L136.69 158.44Z" fill="#003399"/>
<path d="M146.098 158.441H137.934V180.022H146.098V158.441Z" fill="#003399"/>
<path d="M80.2506 158.44H55.538V163.922H67.475L55.1176 175.429V180.022H80.2046V174.518H67.7224L80.2506 163.04V158.44Z" fill="#003399"/>
<path d="M40.9875 180.574C50.8708 180.574 53.4018 178.056 53.4018 172.504V158.44H45.5723V171.664C45.5723 173.885 43.6674 175.208 40.9875 175.208C38.2003 175.208 36.4071 173.878 36.4071 171.629V158.44H28.5776V172.504C28.5776 178.056 31.1086 180.574 40.9875 180.574Z" fill="#003399"/>
<path d="M9.27899 164.403C9.27899 162.735 11.7575 162.68 12.5939 162.68C13.4324 162.68 15.3219 163.015 16.6072 165.118H25.8402C25.8402 161.051 21.9757 157.817 12.6223 157.817C2.23326 157.817 0.464168 162.364 0.464168 164.976C0.464168 169.791 4.20379 171.202 12.3355 172.067C13.0317 172.139 17.2618 171.94 17.2618 173.969C17.2618 175.472 14.884 175.572 14.0083 175.572C13.139 175.572 11.5123 175.43 10.1679 173.043H0C0 177.782 3.2032 180.521 13.9929 180.521C23.931 180.521 26.5693 176.474 26.5693 173.397C26.5693 170.409 24.5134 167.369 16.0401 166.288C12.5063 165.832 9.27899 165.64 9.27899 164.403Z" fill="#003399"/>
</g>
<defs>
<clipPath id="clip0">
<rect width="147" height="180" fill="white"/>
</clipPath>
</defs>
</svg>

<svg width="147" height="180" fill="none" xmlns="http://www.w3.org/2000/svg"><g clip-path="url(#a)"><path d="M144.626 98.85s-13.332 3.842-39.119 19.648c-23.119 14.195-32.185 23.731-32.185 23.731L2 93.064s30.005-22.01 55.077-5.152l33.631 23.012 4.103-2.692L2.014 43.385s13.337-3.847 39.11-19.644C64.257 9.54 73.322 0 73.322 0l71.318 49.166s-30.001 22.009-55.076 5.152L55.932 31.3l-4.102 2.686 92.796 64.862Z" fill="#E20A17"/><path d="M94.598 180.574c9.883 0 12.414-2.518 12.414-8.07V158.44H99.18v13.224c0 2.221-1.907 3.544-4.582 3.544-2.788 0-4.587-1.33-4.587-3.579V158.44h-7.828v14.064c0 5.552 2.531 8.07 12.415 8.07ZM136.69 158.44h-10.742l-8.692 7.448v-7.448h-8.167v21.582h8.167v-7.655l8.073 7.655h10.969l-11.939-11.073 12.331-10.509ZM146.098 158.441h-8.164v21.581h8.164v-21.581ZM80.25 158.44H55.539v5.482h11.937l-12.357 11.507v4.593h25.087v-5.504H67.722l12.529-11.478v-4.6ZM40.987 180.574c9.884 0 12.415-2.518 12.415-8.07V158.44h-7.83v13.224c0 2.221-1.905 3.544-4.585 3.544-2.787 0-4.58-1.33-4.58-3.579V158.44h-7.83v14.064c0 5.552 2.532 8.07 12.41 8.07ZM9.279 164.403c0-1.668 2.479-1.723 3.315-1.723.838 0 2.728.335 4.013 2.438h9.233c0-4.067-3.864-7.301-13.218-7.301-10.389 0-12.158 4.547-12.158 7.159 0 4.815 3.74 6.226 11.871 7.091.697.072 4.927-.127 4.927 1.902 0 1.503-2.378 1.603-3.254 1.603-.869 0-2.496-.142-3.84-2.529H0c0 4.739 3.203 7.478 13.993 7.478 9.938 0 12.576-4.047 12.576-7.124 0-2.988-2.056-6.028-10.529-7.109-3.534-.456-6.761-.648-6.761-1.885Z" fill="#039"/></g><defs><clipPath id="a"><path fill="#fff" d="M0 0h147v180H0z"/></clipPath></defs></svg>
